X:1
T:Racine, CM
T:Racine, CM
T:Peter Christian Lutkin, 1905
T:Public Domain Courtesy of the Cyber Hymnal™
C:Peter Christian Lutkin, 1905
Z:Public Domain
Z:Courtesy of the Cyber Hymnal™
%%score ( 1 2 ) ( 3 4 )
L:1/8
Q:1/4=110
M:4/4
K:Ab
V:1 treble 
V:2 treble 
V:3 bass 
V:4 bass 
V:1
 [CE]2 | [CF]2 [CE]2 C2 [A,A]2 | [DA]3 [DG] [DG]2 [B,B]2 | [EB]2 [EA]2 E2 [_Gc]2 | (c4 B2) F2 | %5
 [FG]2 G2 [CA]2 [Ae]2 | [Ae]3 [Ad] [Ad]2 [FB]2 | [EA]2 (GF) [B,E]2 [DE]2 | E6 |] %9
V:2
 x2 | x4 C2 x2 | x8 | x4 E2 x2 | F6 F2 | x2 (ED) x4 | x8 | x2 C2 x4 | (D4 C2) |] %9
V:3
 [A,,E,]2 | [A,,E,]2 [A,,E,]2 [A,,E,]2 [C,E,]2 | [B,,E,]3 [B,,E,] [B,,E,]2 (F,G,) | %3
 [C,A,]2 [C,A,]2 [C,A,]2 [E,=A,]2 | (=A,4 B,2) [D,D]2 | [E,D]2 (CB,) [F,A,]2 [_G,C]2 | %6
 [F,C]3 [F,D] [F,D]2 [D,D]2 | [E,C]2 [E,A,]2 [E,G,]2 [E,B,]2 | (B,4 A,2) |] %9
V:4
 x2 | x8 | x6 D,2 | x8 | D,6 x2 | x2 E,2 x4 | x8 | x8 | A,,6 |] %9

